X:583
T:The Rights of Man
M:4/4
L:1/8
K:G
"Em"GA|(3BcB (3ABA (3GAG (3FGF|EFGA B2 ef|"C"gfed "Am"edBe|"B7"dBAG A2 GA|
"Em"(3BcB (3ABA (3GAG (3FGF|EFGA B2 ef|\
"C"gfed "B7"Bgfg|"Em"e2 E2 E2:|ga|"Em"babg efga|\
babg e2 fe|
"D"d2 d^c defg|afdf a2 gf|"Em"edef gfga|\
"G"(3bag "D"(3agf "Em"gfed|"C"gfed "B7"Bgfg|"Em"e2 E2 E2:|
